X:473
T:
R:vals
S:Uppt. efter Elisabet Olofsdotters föresjungning (från Flors i Burs).
O:Gotland, Burs
M:3/4
L:1/8
K:Dm
AA|A2 d2 d2|d3 c c2|f2 d2 d2|f3 ee2 |e2 f2 g2|a3 g a2|e2 ^f2 ^g2|a4::(fe)|f3 g a2|(ba) g2 f2|e3 fga|f4 e2|d3 e f2|f2 e2  e2|A2=B2 ^c2|d4:|

